X:1
T:Title
%%score { ( 1 3 ) | 2 }
L:1/8
Q:1/4=90
M:6/8
K:D
V:1 treble nm="Grand Piano"
V:3 treble 
V:2 bass 
V:1
 FFF FED | GAB A3 | [Fd][FA][DF] [GB][FA][DF] | [CE]6 | FFF FED | GAB A3 | AEA ccB | [CA]6 | %8
w: C.~Harold~Lowden * * * * *||||||||
 [FA][EG][DF] [DF] [CE]2 | [CGB][DFA][A,EG] [A,EG] [A,DF]2 | [Fd][EA]F BAF | [CE]6 | FFF GcB | %13
w: |||||
[M:7/8] z d-d- d3 z |[M:3/4] AD [B,DG][DF] [A,CF][K:bass][G,CE] | [F,D]6 |] %16
w: |||
V:2
 [D,A,D][D,A,D][D,A,D] [D,A,D][D,G,D][D,F,] | [D,B,D][D,F,D][D,G,D] [D,F,D]3 | %2
 [D,A,][D,D][D,A,] [D,D][D,D][D,A,] | [A,,A,]6 | [D,A,D][D,A,D][D,A,D] [D,A,D][D,G,D][D,F,] | %5
 [D,B,D][D,F,D][D,G,D] [D,F,D]3 | [E,C][E,A,C][E,CE] [E,A,E][E,A,E][E,^G,D] | [A,,A,]6 | %8
 [A,,A,][A,,A,][A,,A,] [A,,A,] [A,,A,]2 | A,,B,,C, D, D,2 | %10
 [D,A,][D,D][D,A,D] [D,G,D][D,F,D][D,A,D] | [A,,A,]6 | %12
 [D,A,D][D,A,D][D,A,D] [E,A,C][G,A,E][G,A,C] |[M:7/8] [F,A,D] [D,A,]2 [G,B,]3[K:treble] [^G,D=F] | %14
[M:3/4] [A,DF][K:bass]B, E,A, A,,A,, | D,6 |] %16
V:3
 x6 | x6 | x6 | x6 | x6 | x6 | x6 | x6 | x6 | x6 | x6 | x6 | x6 |[M:7/8] A F2 G3 B | %14
[M:3/4] x5[K:bass] x | x6 |] %16

